X:1
T:Hallelujah, We Shall Rise
T:John Edmond Thomas, 1904
T:Hallelujah, We Shall Rise
T:Public Domain
T:Public Domain
T:Public Domain
C:John Edmond Thomas, 1904
Z:Public Domain
%%score ( 1 2 ) ( 3 4 )
L:1/8
M:4/4
K:Bb
V:1 treble 
V:2 treble 
V:3 bass 
V:4 bass 
V:1
 [DF][EG] | [FB][FB][FB][Fc] [FB][EG][DF][EG] | [FB][Fc][FB][EG] [DF]2 Bc | (d2- G>G FF)[Fc][Fc] | %4
w: 1.~In the|re- sur- rect- ion morn- ing, When the|trump of God shall sound, We shall|rise, * * * * we shall|
w: 2.~In the|re- sur- rect- ion morn- ing, What a|meet- ing it will be, We shall|rise, * * * * we shall|
w: 3.~In the|re- sur- rect- ion morn- ing, Bless- èd|thought it is to me, We shall|rise, * * * * we shall|
w: 4.~In the|re- sur- rect- ion morn- ing, We shall|meet Him in the air, We shall|rise, * * * * we shall|
 [FB]6 [DF][EG] | [FB][FB][FB][Fc] [FB][EG][DF][EG] | [FB][Fc][FB][EG] [DF]2 [GB][Ac] | %7
w: rise! Then the|saints will come re- joic- ing And no|tears will e’er be found, We shall|
w: rise! When our|fa- thers and our mo- thers, And our|loved ones we shall see, We shall|
w: rise! I shall|see my bless- èd Sav- ior, Who so|free- ly died for me, We shall|
w: rise! And be|car- ried up to glor- y, To our|home so bright and fair, We shall|
 (B2 G>G FF)[Fc][Fc] | (B-[FB-]DE F2) z2 ||"^Refrain" z2 [FB]>[FB] [FB][DF] z2 | %10
w: rise, * * * * we shall|||
w: rise, * * * * we shall|Hal- * * * *|le- lu- jah! A-|
w: rise, * * * * we shall|||
w: rise, * * * * we shall|||
 z2 [Bd]2 [Bd]2 Bd | (f2 B>B BB)[Fd][^Fc] | [GB][GB][Ec][EB] [EG][DF][B,D][CE] | %13
w: |||
w: men! We shall rise!|In * * * * * the|sur- rect- ion morn- ing, When death’s pri-|
w: |||
w: |||
 [DF][^C=E][DF][CE] [DF][EG][GB][A^c] | B2 G>G FF[Fc][Fc] | [FB]6 |] %16
w: |||
w: son bars are brok- en, We shall rise,|Hal- le- lu- jah! We shall rise.||
w: |||
w: |||
V:2
 x2 | x8 | x8 | x2 d4 x2 | x8 | x8 | x8 | d6 x2 | x2 B2 x4 || x8 | x8 | x2 ^f4 x2 | x8 | x8 | %14
w: |||||||rise.|||||||
w: |||||||rise!||||re-|||
w: |||||||rise!|||||||
w: |||||||rise!|||||||
 d6 x2 | x6 |] %16
w: ||
w: ||
w: ||
w: ||
V:3
 [B,,B,][B,,B,] | [B,,D][B,,D][B,,D][B,,E] [B,,D][B,,B,][B,,B,][B,,B,] | %2
 [B,,D][B,,E][B,,D][B,,B,] [B,,B,]2 z2 | z2 [G,B,]>[G,B,] [D,B,][D,B,][F,E][F,E] | %4
 [B,,D]6 [B,,B,][B,,B,] | [B,,D][B,,D][B,,D][B,,E] [B,,D][B,,B,][B,,B,][B,,B,] | %6
 [B,,D][B,,E][B,,D][B,,B,] [B,,B,]2 z2 | z2 [G,B,]>[G,B,] [D,B,][D,B,][F,E][F,E] | %8
 (DDB,C D2 B,,D,) || (F,2- D>D DB,)D,F, | (B,2- F2 F2) z2 | %11
 z2 ([B,D]>[B,D] [B,D][B,D])[B,,B,][B,,_A,] | %12
 [E,G,][E,G,][E,G,][E,G,] [B,,B,][B,,B,][B,,F,][B,,F,] | %13
 [B,,B,][B,,B,][B,,B,][B,,B,] [B,,B,][B,,B,] z2 | z2 [G,B,]>[G,B,] [D,B,][D,B,][F,E][F,E] | %15
 [B,,D]6 |] %16
V:4
 x2 | x8 | x8 | x8 | x8 | x8 | x8 | x8 | B,,6 x2 || x2 F,4 x2 | x2 B,4 x2 | x8 | x8 | x8 | x8 | %15
 x6 |] %16

